X:20
T:The Hero's Trial
C:Corwin Zekley
L:1/8
M:4/4
K:Bmin
"Bm" Bcdc BAFB |"A" AFEA FEDC |"Bm" B,3 A, B,DFD |"A" A,CEC D4 |$"Bm" Bcdc BAFB |"A" AFEA FEDC | %6
"Bm" B,3 A, B,DFD |1"A" A,CEC"Bm" B,4 :|2"A" A,CEC"Bm" B,CDE |:$"Bm" FA B2 B2 AF |"A" EF A2 A2 FE | %11
"Bm" FABc d2 Bc | de f2 defa |$"A" e6 ef | edcB AFED |"Bm" B,3 A, B,DFD |1"A" A,CEC"Bm" B,CDE :|2 %17
"A" A,CEC"Bm" B,4 |] %18

